X: 2
T: Buningford Assembly. A Country Dance.
R: jig
Z: 2014 John Chambers <jc:trillian.mit.edu>
S: The Gentleman's Magazine v.23, April 1753, p.192
M: 12/8
L: 1/8
K: G
% - - - - - - - - - - - - - - - - - - - - - - - - - - - - -
|:\
G3 (BGB) (dBd) g3 | (gfe) (dcB) (ABG) (AFD) |\
G3 (BGB) (dBd) g3 | (fag) (fed) (ed^c) d3 :|
|:\
D3 (FDF) (AFA) c3 | D3 (GDG) (BGB) d3 |\
D3 (FDF) (AFA) (cBA) | (Bcd) efg (cBA) G3 :|
% - - - - - - - - - - Dance description - - - - - - - - - -
%%begintext align
%%   The 1st, 2d, and 3d couple foot it ; hands all six round .| ; the same back
%% again :|, cross over two couple .| ; lead up to the top, foot it, and cast off :|
%%endtext

%%sep 1 1 500
%%sep 1 1 500
